X: 20803
T: THERE IS A FORM
C: Copyright.--W. Smellie, M.D.
Q: "Slow."
%R: air, jig, waltz
B: W. Hamilton "Universal Tune-Book" Vol. 2 Glasgow 1846 p.80 #3
S: http://s3-eu-west-1.amazonaws.com/itma.dl.printmaterial/book_pdfs/hamiltonvol2web.pdf
Z: 2016 John Chambers <jc:trillian.mit.edu>
M: 6/8
L: 1/8
K: C
% - - - - - - - - - - - - - - - - - - - - - - - - -
G |\
(GA).G (ed).c | A2A HG2G | d2e f2(g/f/) | (e3 d2)d |\
e2g (ed).B | c2e (cB).G | A2A B2B | c3- c2 |]\
G |\
(ed).c (Bc).d | (cB).A B2c |
G2A (BA).B | c3 c2d |\
(ef).e (dc).d | (ef).e (dc).d | (ed).c A2A | G3- G2G |\
(ef).e (dc).d | (ef).e (dc)d | (ed).e dA.B | c3- c2 |]
% - - - - - - - - - - - - - - - - - - - - - - - - -

%%sep 1 1 500
%%sep 1 1 500

